X:200 
T:Tarmon Polka 
B:CRE3.076 (Polca UÃÂÃÂÃÂÃÂ­ Tharmin)
F:file ID: cre.3/200tarmon
S:Martin Mulvihill 
R:polka
Q:120
M:2/4
L:1/8
K:G
z2|DG GB|A/B/A/G/ ED|GG AG/A/|BA A2|
DG GB|A/B/A/G/ ED|GG AG/A/|BG G2 :|
|:Bd cB|AG ED|G2 AG/A/|BA A2|
Bd cB|AG ED|G2 AG/A/|BG G2 :|

%%%

